!!!!SEGMENT: pl-wnifc--13846--001-133_anonim--piesni-polskie-i-ruskie-ludu-galicyjskiego-133-sedyt-holub-nad-wodoju.krn
!!!kernsource:
!!!cenid: 18xx:3355
!!!COM: Anonim
!!!COM-rismID: pe30004985
!!!CDT:
!!!CNT:
!!!GTL: Pieśni polskie i ruskie ludu galicyjskiego
!!!OTL: 133. Sedyt hołub nad wodoju
!!!OMV: 133
!!!PDT: 1833
!!!AGN:
!!!YEC: Copyright 2022 Narodowy Instytut Fryderyka Chopina (https://polishscores.org)
!!!YEM: License CC-BY-4.0 (https://creativecommons.org/licenses/by/4.0)
!!!SMS-siglum: PL-Wnifc
!!!SMS-shelfmark: 13846
!!!SMS-shelfwork: 001-133 G
!!!NIFC-rismSourceID: 1001036701
!!!NIFC-rismChildID: 1001039640
!!!NIFC-islandoraID: nifc:210326
!!!URL-pdf-islandora: https://repozytorium.nifc.pl/islandora/object/nifc%3A210326/datastream/PDF/view
!!!URL-scan:
!!!IIIF:
!!!ONB-nifc:
!!!OMD: Vivace
!!!AIN: 1 piano 1 vox
!!!key: d
**kern	**kern	**kern	**text
*part2	*part2	*part1	*
*staff3	*staff2	*staff1	*
*I"FORTEPIAN.	*I"FORTEPIAN.	*I"GŁOS.	*
*Ipiano	*Ipiano	*Ivox	*
*ICklav	*ICklav	*ICvox	*
*IGacmp	*IGacmp	*IGsolo	*
*clefF4	*clefG2	*clefG2	*
*k[b-]	*k[b-]	*k[b-]	*
*d:	*d:	*d:	*
*M2/4	*M2/4	*M2/4	*
=1	=1	=1	=1
!	!	!LO:TX:a:i:t=ad libitum in 8va	!
!	!LO:TX:a:t=E.225.:rj	!LO:TX:a:B:t=Kołomyika	!
8D/L 8AA/ 8DD/^	8dd\	8d/	Se-
8D/J 8AA/ 8DD/|	(>16ccc\LL	(>16cc\LL	-dyt
.	16bbn\JJ)	16bn\JJ)	.
8D/L 8AA/ 8DD/^	8aa\	8a/	ho-
.	8qbbn/	8qbn/	.
8D/J 8AA/ 8DD/|	16aa\LL	(<16a/LL	-łub
.	16gg#X\JJ	16g#X/JJ)	.
=2	=2	=2	=2
8D/L 8AA/ 8DD/|	8aa\	8a/	nad
8D/J 8AA/ 8DD/|	8aa\	8a/	wo-
8D/L 8AA/ 8DD/|	(>16aa\LL	(<16a/LL	-do-
.	16gg#X\JJ)	16g#X/JJ)	.
8D/J 8AA/ 8DD/|	8aa\	8a/	-ju,
!!LO:LB:g=original
=3	=3	=3	=3
*tremolo	*	*	*
8D/ 8AA/ 8DD/L	8aa\	8a/	ho-
8D/ 8AA/ 8DD/	(>16ccc\LL	(<16cc/LL	-łub-
.	16bbn\JJ)	16bn/JJ)	.
8D/ 8AA/ 8DD/	8aa\	8a/	-ka
8D/ 8AA/ 8DD/J	8aa\	8a/	na
*Xtremolo	*	*	*
=4	=4	=4	=4
4D/ 4AA/ 4DD/^>	(>8.ggn\^<L	(<8.gn/L	kład-
.	32ff\LL	32f/LL	.
.	32ee\JJJ)	32e/JJJ)	.
4D/ 4AA/ 4DD/^>	4dd\^<	4d/	-ci,
!!LO:LB:g=original
=5	=5	=5	=5
*tremolo	*	*	*
8AA/ 8DD/ 8AAA/L	8dd\L	8d/	ska-
8AA/ 8DD/ 8AAA/	(>16ccc\^<L	(>16cc\LL	-ży
.	16bbn\JJ)	16bn\JJ)	.
8AA/ 8DD/ 8AAA/	(>16bb\^<LL	(>16b\LL	me-
.	16aa\JJ)	16a\JJ)	.
8AA/ 8DD/ 8AAA/J	(>16aa\^<LL	(>16a\LL	-ni,
.	16gg\JJ)	16g\JJ)	.
=6	=6	=6	=6
8AA/ 8DD/ 8AAA/L	(>16gg\LL	(<16g/LL	mo-
.	16ff\JJ)	16f/JJ)	.
8AA/ 8DD/ 8AAA/	(>16ff\LL	(<16f/LL	-ja
.	16ee\JJ)	16e/JJ)	.
8AA/ 8DD/ 8AAA/	(>16ee\LL	(<16e/LL	my-
.	16cc#X\JJ)	16c#X/JJ)	.
8AA/ 8DD/ 8AAA/J	8dd\	8d/	-ła,
*Xtremolo	*	*	*
!!LO:LB:g=original
=7	=7	=7	=7
8AA/L 8DD/ 8AAA/	8dd\L	8d/	szczo
8AA/ 8DD/ 8AAA/	8ff\J	8f/	to-
8AA/ 8CC#X/ 8AAA/	(>16ee\LL	(<16e/LL	-bi
.	16dd\JJ)	16d/JJ)	.
8AA/J 8GG/ 8AAA/	(>16ee\LL	(<16e/LL	na
.	16cc#X\JJ)	16c#X/JJ)	.
=8	=8	=8	=8
4AA/ 4FF/ 4DD/^	4dd\	4d/	had-
4AA/ 4FF/ 4DD/^	8dd\	8d/	-ci.
.	8r	8r	.
==	==	==	==
*-	*-	*-	*-
!!!system-decoration: <s1>{(s2,s3)}
!!!RDF**kern: > = above
!!!RDF**kern: < = below
!!!RDF**kern: | = vertical stroke
!!!ENC: Emilia Ziętek
!!!END: 2021-10-12
!!!ENC: Andrzej Kubiczek
!!!END: 2021-11-12
